svg/u1f1f2.svg

<svg viewBox="0 0 128 128" xmlns="http://www.w3.org/2000/svg">
  <path d="m111.53 18.49c-0.01-0.01-0.01-0.03-0.02-0.04-0.02-0.25-0.1-0.5-0.2-0.74-0.03-0.06-0.06-0.11-0.09-0.17-0.04-0.07-0.07-0.14-0.11-0.21-0.08-0.12-0.19-0.23-0.29-0.33-0.03-0.02-0.04-0.05-0.07-0.07-0.18-0.17-0.4-0.29-0.63-0.4-0.06-0.02-0.11-0.04-0.17-0.07-0.25-0.08-0.51-0.14-0.78-0.14h-22.3c-0.31 0-0.59 0.07-0.87 0.18-0.08 0.03-0.14 0.07-0.23 0.11-0.19 0.11-0.37 0.23-0.53 0.38-0.03 0.04-0.09 0.06-0.13 0.1-0.03 0.03-0.04 0.07-0.05 0.1-0.16 0.19-0.28 0.4-0.38 0.64-0.02 0.04-0.05 0.08-0.07 0.13 0 0.01-0.01 0.02-0.01 0.03l-20.6 67.17-20.61-67.17c0-0.01-0.01-0.02-0.01-0.03-0.02-0.05-0.05-0.09-0.07-0.13-0.09-0.24-0.22-0.45-0.37-0.64-0.03-0.03-0.04-0.07-0.06-0.1-0.04-0.04-0.1-0.06-0.13-0.1-0.16-0.15-0.33-0.28-0.52-0.38-0.08-0.04-0.15-0.08-0.23-0.11-0.28-0.11-0.56-0.18-0.87-0.18h-22.3c-0.27 0-0.52 0.06-0.78 0.14-0.05 0.02-0.11 0.04-0.17 0.07-0.24 0.11-0.45 0.23-0.64 0.4-0.03 0.03-0.04 0.05-0.06 0.07-0.11 0.11-0.21 0.21-0.3 0.33-0.05 0.07-0.07 0.14-0.11 0.21-0.03 0.06-0.07 0.11-0.09 0.17-0.1 0.24-0.17 0.48-0.21 0.74 0 0.01-0.01 0.03-0.01 0.04l-8.45 99.96c-0.06 0.66 0.17 1.31 0.61 1.8 0.45 0.48 1.09 0.77 1.74 0.77h20.91c1.22 0 2.23-0.92 2.36-2.14l4.19-42.6 16.15 43.2c0.01 0.01 0.02 0.02 0.03 0.04 0.07 0.19 0.17 0.38 0.29 0.54l0.03 0.03c0.02 0.04 0.07 0.07 0.09 0.1 0.12 0.13 0.24 0.24 0.37 0.35l0.18 0.12c0.13 0.08 0.27 0.14 0.4 0.2 0.07 0.03 0.12 0.05 0.19 0.07 0.2 0.06 0.42 0.1 0.64 0.1h15.61c0.22 0 0.44-0.04 0.65-0.1 0.06-0.02 0.12-0.04 0.18-0.07 0.15-0.05 0.28-0.12 0.4-0.2 0.06-0.04 0.12-0.08 0.17-0.12 0.14-0.1 0.25-0.22 0.37-0.35 0.03-0.04 0.07-0.07 0.1-0.1 0-0.01 0.02-0.02 0.03-0.03 0.12-0.17 0.22-0.35 0.3-0.54 0-0.01 0.01-0.02 0.02-0.04l16.15-43.2 4.2 42.61c0.12 1.21 1.13 2.14 2.35 2.14h20.9c0.66 0 1.3-0.28 1.74-0.77 0.45-0.49 0.67-1.14 0.62-1.8l-8.45-99.97z" fill="#40C0E7"/>
</svg>

<svg viewBox="0 0 128 128" xmlns="http://www.w3.org/2000/svg">
  <defs/>
  <path d="M111.53,18.49 C111.52,18.48 111.52,18.46 111.51,18.45 C111.49,18.2 111.41,17.95 111.31,17.71 C111.28,17.65 111.25,17.6 111.22,17.54 C111.18,17.47 111.15,17.4 111.11,17.33 C111.03,17.21 110.92,17.1 110.82,17 C110.79,16.98 110.78,16.95 110.75,16.93 C110.57,16.76 110.35,16.64 110.12,16.53 C110.06,16.51 110.01,16.49 109.95,16.46 C109.7,16.38 109.44,16.32 109.17,16.32 L86.87,16.32 C86.56,16.32 86.28,16.39 86,16.5 C85.92,16.53 85.86,16.57 85.77,16.61 C85.58,16.72 85.4,16.84 85.24,16.99 C85.21,17.03 85.15,17.05 85.11,17.09 C85.08,17.12 85.07,17.16 85.06,17.19 C84.9,17.38 84.78,17.59 84.68,17.83 C84.66,17.87 84.63,17.91 84.61,17.96 C84.61,17.97 84.6,17.98 84.6,17.99 L64,85.16 L43.39,17.99 C43.39,17.98 43.38,17.97 43.38,17.96 C43.36,17.91 43.33,17.87 43.31,17.83 C43.22,17.59 43.09,17.38 42.94,17.19 C42.91,17.16 42.9,17.12 42.88,17.09 C42.84,17.05 42.78,17.03 42.75,16.99 C42.59,16.84 42.42,16.71 42.23,16.61 C42.15,16.57 42.08,16.53 42,16.5 C41.72,16.39 41.44,16.32 41.13,16.32 L18.83,16.32 C18.56,16.32 18.31,16.38 18.05,16.46 C18,16.48 17.94,16.5 17.88,16.53 C17.64,16.64 17.43,16.76 17.24,16.93 C17.21,16.96 17.2,16.98 17.18,17 C17.07,17.11 16.97,17.21 16.88,17.33 C16.83,17.4 16.81,17.47 16.77,17.54 C16.74,17.6 16.7,17.65 16.68,17.71 C16.58,17.95 16.51,18.19 16.47,18.45 C16.47,18.46 16.46,18.48 16.46,18.49 L8.01,118.45 C7.95,119.11 8.18,119.76 8.62,120.25 C9.07,120.73 9.71,121.02 10.36,121.02 L31.27,121.02 C32.49,121.02 33.5,120.1 33.63,118.88 L37.82,76.28 L53.97,119.48 C53.98,119.49 53.99,119.5 54,119.52 C54.07,119.71 54.17,119.9 54.29,120.06 L54.32,120.09 C54.34,120.13 54.39,120.16 54.41,120.19 C54.53,120.32 54.65,120.43 54.78,120.54 L54.96,120.66 C55.09,120.74 55.23,120.8 55.36,120.86 C55.43,120.89 55.48,120.91 55.55,120.93 C55.75,120.99 55.97,121.03 56.19,121.03 L71.8,121.03 C72.02,121.03 72.24,120.99 72.45,120.93 C72.51,120.91 72.57,120.89 72.63,120.86 C72.78,120.81 72.91,120.74 73.03,120.66 C73.09,120.62 73.15,120.58 73.2,120.54 C73.34,120.44 73.45,120.32 73.57,120.19 C73.6,120.15 73.64,120.12 73.67,120.09 C73.67,120.08 73.69,120.07 73.7,120.06 C73.82,119.89 73.92,119.71 74,119.52 C74,119.51 74.01,119.5 74.02,119.48 L90.17,76.28 L94.37,118.89 C94.49,120.1 95.5,121.03 96.72,121.03 L117.62,121.03 C118.28,121.03 118.92,120.75 119.36,120.26 C119.81,119.77 120.03,119.12 119.98,118.46 L111.53,18.49 Z" fill="#40C0E7"/>
</svg>
